!!!!SEGMENT: pl-sa--591-a-ix-71--002_anonim--ach-ubogi-zlobie.krn
!!!cenid: 18xx:659
!!!COM: Anonim
!!!COM-rismID:
!!!CDT:
!!!CNT:
!!!OTL: Ach ubogi żłobie
!!!PDT:
!!!AGN: Secular
!!!SMS-siglum: PL-SA
!!!SMS-shelfmark: 591/A IX 71
!!!SMS-shelfwork: 002 W
!!!SMS-variant:
!!!SMS-altvar:
!!!NIFC-rismSourceID: 1001113065
!!!NIFC-islandoraID:
!!!URL-pdf-islandora:
!!!URL-scan: https://bc.bdsandomierz.pl/dlibra/publication/1400/edition/1368/content @EN{Scan on Cyfrowa Biblioteka Diecezjalna w Sandomierzu} @PL{Skany w portalu Cyfrowa Biblioteka Diecezjalna w Sandomierzu}
!!!ONB-nifc: Str. 1, s. 3-4 (do numeru 3)
!!!AIN: 2 empty
!!!key:
**kern	**kern
*part2	*part1
*staff2	*staff1
*Iempty	*Iempty
*I"2	*
*I'keyb	*
*clefC1	*clefG2
*k[]	*k[f#]
*G:	*G:
*M2/4	*M2/4
=1	=1
!LO:TX:a:t=P:problem=brak oznaczenia tonacji	!
!LO:TX:a:t=P:problem=brak klucza	!
!LO:TX:a:t=P:problem=brak oznaczenia metrycznego	!LO:TX:a:t=P:problem=brak klucza
!LO:TX:a:t=P:problem=zgodnie z RISM "Right hand part only. Other parts presumably missing."	!LO:TX:a:t=P:problem=brak oznaczenia metrycznego
!	!LO:TX:i:a:t=Ach ubogi złobie
8g\L	8g\L
8b\J 8dd	8f#\
4r	8g\
.	8f#\J 8a
=2	=2
*rep	*
!LO:TX:a:t=P:problem=brak oznaczenia cyfrowego nad powtórzeniem	!
8g\L	4g\ 4b
8b\J 8dd	.
4r	4f#\ 4a
*Xrep	*
=3	=3
2ryy	8g\L 8b
.	8f#\ 8a
.	8g\ 8b
.	8a\J 8cc
=4	=4
2ryy	4f#\ 4a
.	4f#\ 4a
=5||	=5||
2ryy	8f#\L 8a
.	8g\ 8b
.	8a\ 8cc
.	8a\J 8cc
=6	=6
2ryy	8b\L
.	8a\
.	8b\
.	8g\J
=7	=7
2ryy	8a\L
.	8f#\
.	8d\
.	8f#\J
=8	=8
2ryy	4g\
.	4g\ 4b
!!LO:LB:g=original
=9	=9
2ryy	8f#\L 8a
.	8g\ 8b
.	8a\ 8cc
.	8a\J 8cc
=10	=10
2ryy	8b\L
.	8a\
.	8b\
.	8g\J
=11	=11
2ryy	8a\L
.	8f#\
.	8d\
.	8f#\J
=12	=12
2ryy	4g\
.	4g\
==	==
*-	*-
!!!system-decoration: [(s1,s2)]
!!!RDF**kern: > = above
!!!RDF**kern: < = below
!!!EED: Mateusz Mrugas
!!!EEV: 2020-12-11
!!!ENC: Andrzej Kubiczek
!!!END: 2020-06-19
